X: 2
T: Mandad'ei comigo
F:https://en.wikipedia.org/wiki/Martin_Codax
F:https://es.wikisource.org/wiki/Archivo:Martim_Codax_Cantigas_de_Amigo.jpg
Z:Ali Corbin <ali.corbin:gmail.com>
N: 
M: 3/4
L: 1/4
Q: 1/4=160
K: G Mixolydian
V:1
%Staff 1
%%MIDI program 74
%
 (BG2)|(AB2)|(Bd2)|(cBA)|(BA>G)|G3|
w:Man-* dad'* ei*   co-** mi-** go
 (AG2)|(AB2)|(Bd2)|(cBA)|G3|(GF2)|
w:ca*   ven* meu*   a-** mi- go.*
 (GA2)|B3|(AG2)|(AGF)|(GA/B/c)|(BAB)|G3||
w:E*   i- rei*  madr** a***     vi-**go. 
%
W:Mandad' ei comigo 		% Message I.have with.me
W:ca ven meu amigo. 		% because comes my friend.
W:E irei madr' a Vigo. 		% And I.will.go, mother, to Vigo. 
W:
W:Comig' ei mandado 		% With.me I.have message
W:ca ven meu amado. 		% because comes my beloved 
W:E irei madr' a Vigo. 		% And I.will.go, mother, to Vigo.
W:
W:Ca ven meu amigo		% Because comes my friend 
W:e ven san' e vivo. 		% and comes safe and alive.
W:E irei madr' a Vigo. 		% And I.will.go, mother, to Vigo.
W:
W:Ca ven meu amado 		% Because comes my beloved
W:e ven viv' e sano. 		% and comes alive and safe.
W:E irei madr' a Vigo. 		% And I.will.go, mother, to Vigo.
W:
W:Ca ven san' e vivo 		% Because he.comes safe and alive
W:e del rei amigo. 		% and of.the king friend.
W:E irei madr' a Vigo. 		% And I.will.go, mother, to Vigo.
W:
W:Ca ven vivo e sano 		% Because he.comes alive and safe
W:e del rei privado. 		% and of.the king familiar.
W:E irei madr' a Vigo. 		% And I.will.go, mother, to Vigo.


